X:6
M:3/4
L:1/8
Q:1/4=100
K:C Minor
d2 c2 d/c/=B/c/|G4:|
|:E/F/G/B/|e4 f/e/d/c/|d2 c2 (3cdf|g4 g/f/e/d/|e2 G2 f/e/d/c/|d2 g2 b>d|
c2 BG e>g|d2 c2 d/c/=B/c/|G4:|

